X: 143
T:Polka Piquee 1
M:2/2
L:1/8
Q:250
K:D
d2 | c2 d2 F2 B2 | ABAG F2 d2 | c2 d2 F2 B2 |
A4 A2 :||
FG | ABAG F2 A2 | GAGF E3 F |1 G2 E2 F2 G2 |
FGFE D2 |2 G2 A2 B2 c2 | d4 d2 ||
